public/icons/dark/jquery.darkmode.svg

<svg width="192" height="192" viewBox="0 0 192 192" fill="none" xmlns="http://www.w3.org/2000/svg">
<g clip-path="url(#clip0_468_1920)">
<path d="M28.3504 56.4201C14.6204 76.1401 16.3204 101.79 26.8204 122.75C27.0604 123.26 27.3304 123.75 27.5804 124.24C27.7304 124.56 27.9004 124.88 28.0804 125.2C28.1604 125.37 28.2804 125.57 28.3804 125.73C28.5504 126.07 28.7304 126.39 28.9104 126.71C29.2504 127.28 29.5804 127.86 29.9204 128.42C30.1104 128.73 30.2904 129.05 30.5104 129.36C30.8704 129.97 31.2904 130.57 31.6604 131.18C31.8304 131.44 31.9904 131.69 32.1704 131.94C32.7104 132.76 33.2504 133.57 33.8504 134.37C33.8504 134.39 33.8704 134.41 33.9004 134.43C33.9904 134.56 34.0904 134.69 34.1804 134.82C34.6904 135.51 35.1904 136.19 35.7204 136.85C35.9004 137.1 36.1004 137.34 36.2804 137.59C36.7604 138.17 37.2404 138.76 37.7104 139.34C37.8904 139.55 38.0704 139.77 38.2604 139.98C38.8904 140.74 39.5504 141.49 40.2304 142.23C40.2304 142.24 40.2504 142.26 40.2604 142.28C40.2804 142.31 40.3104 142.34 40.3504 142.36C41.0004 143.07 41.6604 143.78 42.3404 144.47C42.5504 144.68 42.7704 144.89 43.0004 145.12C43.5204 145.64 44.0404 146.17 44.5804 146.69C44.8104 146.9 45.0304 147.11 45.2404 147.32C45.9604 147.99 46.6804 148.67 47.4304 149.32C47.4404 149.33 47.4504 149.34 47.4604 149.35C47.5804 149.46 47.7204 149.56 47.8304 149.67C48.4904 150.24 49.1604 150.8 49.8304 151.36C50.1004 151.58 50.3704 151.8 50.6404 152.02C51.2004 152.46 51.7604 152.89 52.3304 153.32C52.6204 153.54 52.9104 153.77 53.2204 153.99C53.8304 154.45 54.4604 154.89 55.0804 155.33C55.3004 155.49 55.5304 155.66 55.7604 155.81C55.8204 155.86 55.8804 155.91 55.9404 155.95C56.5604 156.35 57.1404 156.75 57.7504 157.15C58.0204 157.32 58.2804 157.49 58.5404 157.67C59.4904 158.27 60.4304 158.85 61.3604 159.41C61.6304 159.55 61.9004 159.7 62.1604 159.86C62.8604 160.26 63.5604 160.66 64.2804 161.05C64.6704 161.27 65.0704 161.46 65.4704 161.66C65.9504 161.92 66.4604 162.19 66.9804 162.46C67.1004 162.51 67.2304 162.56 67.3404 162.62C67.5504 162.72 67.7504 162.82 67.9604 162.92C68.7504 163.31 69.5504 163.67 70.3904 164.04C70.5504 164.11 70.7204 164.18 70.8804 164.27C71.8104 164.67 72.7504 165.06 73.7004 165.44C73.9204 165.52 74.1504 165.63 74.3904 165.7C75.2504 166.04 76.1604 166.37 77.0404 166.69C77.1504 166.73 77.2504 166.77 77.3704 166.81C78.3604 167.15 79.3404 167.47 80.3404 167.78C80.5804 167.85 80.8104 167.93 81.0604 167.99C82.0804 168.3 83.0704 168.66 84.1204 168.85C150.48 180.95 169.76 128.97 169.76 128.97C153.56 150.06 124.81 155.63 97.5804 149.43C96.5704 149.2 95.5704 148.88 94.5404 148.58C94.3004 148.51 94.0304 148.43 93.8004 148.35C92.8104 148.05 91.8304 147.73 90.8804 147.41C90.7504 147.36 90.6004 147.31 90.4704 147.26C89.6004 146.96 88.7504 146.64 87.9004 146.3C87.6604 146.2 87.4204 146.11 87.1804 146.03C86.2404 145.66 85.3004 145.26 84.3904 144.86C84.1904 144.79 84.0204 144.7 83.8304 144.62C83.0304 144.25 82.2704 143.9 81.4904 143.52C81.2504 143.42 81.0404 143.31 80.8004 143.19C80.1904 142.9 79.5904 142.58 78.9904 142.27C78.5804 142.06 78.1704 141.86 77.7804 141.64C77.0504 141.25 76.3204 140.83 75.5904 140.43C75.3604 140.28 75.1204 140.15 74.8604 140.01C73.9204 139.45 72.9604 138.87 72.0304 138.27C71.7604 138.1 71.5104 137.93 71.2604 137.76C70.5804 137.33 69.9004 136.87 69.2404 136.42C69.0304 136.27 68.8104 136.11 68.5904 135.95C67.9504 135.5 67.3204 135.04 66.6804 134.58C66.4104 134.37 66.1304 134.15 65.8404 133.94C65.2704 133.5 64.6904 133.06 64.1204 132.6C63.8704 132.39 63.6104 132.19 63.3704 131.99C62.6304 131.39 61.9304 130.8 61.2204 130.18C61.1504 130.11 61.0504 130.05 60.9704 129.98C60.2204 129.31 59.4604 128.61 58.7204 127.93C58.5004 127.72 58.3104 127.52 58.0804 127.32C57.5404 126.79 57.0004 126.27 56.4704 125.74C56.2404 125.52 56.0404 125.31 55.8304 125.09C55.1604 124.41 54.4904 123.71 53.8404 122.99C53.8104 122.96 53.7704 122.93 53.7404 122.89C53.0604 122.14 52.3904 121.37 51.7304 120.6C51.5504 120.39 51.3804 120.18 51.2004 119.97C50.7204 119.37 50.2304 118.77 49.7404 118.18C49.5804 117.95 49.4004 117.73 49.2204 117.51C48.6504 116.77 48.1004 116.04 47.5404 115.28C32.4304 94.6701 26.9804 66.2201 39.0604 42.8701" fill="#8CD0F4"/>
<path d="M70.9601 39.7896C61.0101 54.0696 61.5601 73.1796 69.3101 88.2896C70.5901 90.8196 72.0501 93.2796 73.6901 95.6096C75.1801 97.7496 76.8201 100.28 78.8101 101.99C79.5101 102.78 80.2601 103.54 81.0401 104.31C81.2301 104.5 81.4201 104.69 81.6201 104.89C82.3601 105.6 83.1201 106.31 83.8901 106.99C83.9101 107.02 83.9601 107.05 83.9801 107.07C83.9901 107.07 84.0001 107.09 84.0001 107.09C84.8701 107.86 85.7401 108.58 86.6501 109.29C86.8601 109.44 87.0501 109.61 87.2701 109.76C88.1701 110.46 89.0901 111.14 90.0201 111.8C90.0501 111.81 90.0801 111.83 90.1201 111.85C90.5201 112.14 90.9501 112.41 91.3901 112.69C91.5801 112.81 91.7801 112.96 91.9801 113.08C92.6701 113.52 93.3401 113.94 94.0401 114.35C94.1401 114.4 94.2401 114.46 94.3401 114.51C94.9201 114.86 95.5401 115.21 96.1601 115.53C96.3701 115.66 96.5901 115.76 96.8001 115.88C97.2301 116.09 97.6501 116.32 98.0701 116.54C98.1301 116.57 98.2101 116.6 98.2701 116.63C99.1501 117.06 100.04 117.46 100.91 117.86C101.12 117.94 101.3 118.02 101.51 118.1C102.23 118.41 102.96 118.71 103.68 118.99C104.01 119.1 104.31 119.23 104.61 119.33C105.27 119.57 105.95 119.8 106.61 120.02C106.94 120.13 107.23 120.22 107.52 120.31C108.46 120.61 109.42 120.99 110.42 121.15C161.64 129.64 173.49 90.1896 173.49 90.1896C162.82 105.56 142.17 112.88 120.13 107.16C119.14 106.91 118.17 106.63 117.23 106.32C116.93 106.24 116.66 106.14 116.36 106.04C115.68 105.82 114.99 105.59 114.32 105.34C114.02 105.23 113.7 105.11 113.4 105C112.67 104.71 111.94 104.43 111.23 104.12C111.02 104.04 110.81 103.96 110.65 103.87C109.74 103.48 108.84 103.06 107.96 102.63C107.51 102.4 107.07 102.17 106.62 101.94C106.35 101.8 106.09 101.68 105.86 101.55C105.26 101.24 104.71 100.91 104.15 100.58C104.01 100.51 103.88 100.44 103.75 100.36C103.07 99.9396 102.36 99.5296 101.7 99.0996C101.47 98.9696 101.28 98.8196 101.07 98.6896C100.62 98.3996 100.18 98.1196 99.7201 97.8096C98.7901 97.1596 97.8801 96.4796 96.9701 95.7896C96.7601 95.6196 96.5601 95.4596 96.3501 95.2896C86.6801 87.6796 79.0401 77.2696 75.4201 65.4796C71.6001 53.2396 72.4401 39.4896 79.0301 28.3496" fill="#8CD0F4"/>
<path d="M106.77 27.3796C100.9 35.9896 100.34 46.6896 104.39 56.1896C108.68 66.2896 117.46 74.2096 127.69 77.9596C128.11 78.1196 128.52 78.2596 128.95 78.4096C129.14 78.4696 129.32 78.5296 129.52 78.5896C130.12 78.7796 130.71 78.9996 131.33 79.1196C159.63 84.5796 167.29 64.5996 169.35 61.6596C162.61 71.3396 151.32 73.6596 137.45 70.2896C136.36 70.0296 135.17 69.6296 134.11 69.2496C132.76 68.7696 131.42 68.2196 130.12 67.5996C127.68 66.4196 125.32 64.9896 123.14 63.3296C110.73 53.9196 103.04 35.9696 111.13 21.3496" fill="#8CD0F4"/>
</g>
<defs>
<clipPath id="clip0_468_1920">
<rect width="192" height="192" fill="white"/>
</clipPath>
</defs>
</svg>

<?xml version="1.0" encoding="UTF-8"?><svg id="icons" xmlns="http://www.w3.org/2000/svg" viewBox="0 0 192 192"><defs><style>.cls-1{fill:#8cd0f4;}</style></defs><path class="cls-1" d="M28.35,56.42c-13.73,19.72-12.03,45.37-1.53,66.33,.24,.51,.51,1,.76,1.49,.15,.32,.32,.64,.5,.96,.08,.17,.2,.37,.3,.53,.17,.34,.35,.66,.53,.98,.34,.57,.67,1.15,1.01,1.71,.19,.31,.37,.63,.59,.94,.36,.61,.78,1.21,1.15,1.82,.17,.26,.33,.51,.51,.76,.54,.82,1.08,1.63,1.68,2.43,0,.02,.02,.04,.05,.06,.09,.13,.19,.26,.28,.39,.51,.69,1.01,1.37,1.54,2.03,.18,.25,.38,.49,.56,.74,.48,.58,.96,1.17,1.43,1.75,.18,.21,.36,.43,.55,.64,.63,.76,1.29,1.51,1.97,2.25,0,.01,.02,.03,.03,.05,.02,.03,.05,.06,.09,.08,.65,.71,1.31,1.42,1.99,2.11,.21,.21,.43,.42,.66,.65,.52,.52,1.04,1.05,1.58,1.57,.23,.21,.45,.42,.66,.63,.72,.67,1.44,1.35,2.19,2,.01,.01,.02,.02,.03,.03,.12,.11,.26,.21,.37,.32,.66,.57,1.33,1.13,2,1.69,.27,.22,.54,.44,.81,.66,.56,.44,1.12,.87,1.69,1.3,.29,.22,.58,.45,.89,.67,.61,.46,1.24,.9,1.86,1.34,.22,.16,.45,.33,.68,.48,.06,.05,.12,.1,.18,.14,.62,.4,1.2,.8,1.81,1.2,.27,.17,.53,.34,.79,.52,.95,.6,1.89,1.18,2.82,1.74,.27,.14,.54,.29,.8,.45,.7,.4,1.4,.8,2.12,1.19,.39,.22,.79,.41,1.19,.61,.48,.26,.99,.53,1.51,.8,.12,.05,.25,.1,.36,.16,.21,.1,.41,.2,.62,.3,.79,.39,1.59,.75,2.43,1.12,.16,.07,.33,.14,.49,.23,.93,.4,1.87,.79,2.82,1.17,.22,.08,.45,.19,.69,.26,.86,.34,1.77,.67,2.65,.99,.11,.04,.21,.08,.33,.12,.99,.34,1.97,.66,2.97,.97,.24,.07,.47,.15,.72,.21,1.02,.31,2.01,.67,3.06,.86,66.36,12.1,85.64-39.88,85.64-39.88-16.2,21.09-44.95,26.66-72.18,20.46-1.01-.23-2.01-.55-3.04-.85-.24-.07-.51-.15-.74-.23-.99-.3-1.97-.62-2.92-.94-.13-.05-.28-.1-.41-.15-.87-.3-1.72-.62-2.57-.96-.24-.1-.48-.19-.72-.27-.94-.37-1.88-.77-2.79-1.17-.2-.07-.37-.16-.56-.24-.8-.37-1.56-.72-2.34-1.1-.24-.1-.45-.21-.69-.33-.61-.29-1.21-.61-1.81-.92-.41-.21-.82-.41-1.21-.63-.73-.39-1.46-.81-2.19-1.21-.23-.15-.47-.28-.73-.42-.94-.56-1.9-1.14-2.83-1.74-.27-.17-.52-.34-.77-.51-.68-.43-1.36-.89-2.02-1.34-.21-.15-.43-.31-.65-.47-.64-.45-1.27-.91-1.91-1.37-.27-.21-.55-.43-.84-.64-.57-.44-1.15-.88-1.72-1.34-.25-.21-.51-.41-.75-.61-.74-.6-1.44-1.19-2.15-1.81-.07-.07-.17-.13-.25-.2-.75-.67-1.51-1.37-2.25-2.05-.22-.21-.41-.41-.64-.61-.54-.53-1.08-1.05-1.61-1.58-.23-.22-.43-.43-.64-.65-.67-.68-1.34-1.38-1.99-2.1-.03-.03-.07-.06-.1-.1-.68-.75-1.35-1.52-2.01-2.29-.18-.21-.35-.42-.53-.63-.48-.6-.97-1.2-1.46-1.79-.16-.23-.34-.45-.52-.67-.57-.74-1.12-1.47-1.68-2.23-15.11-20.61-20.56-49.06-8.48-72.41"/><path class="cls-1" d="M70.96,39.79c-9.95,14.28-9.4,33.39-1.65,48.5,1.28,2.53,2.74,4.99,4.38,7.32,1.49,2.14,3.13,4.67,5.12,6.38,.7,.79,1.45,1.55,2.23,2.32,.19,.19,.38,.38,.58,.58,.74,.71,1.5,1.42,2.27,2.1,.02,.03,.07,.06,.09,.08,.01,0,.02,.02,.02,.02,.87,.77,1.74,1.49,2.65,2.2,.21,.15,.4,.32,.62,.47,.9,.7,1.82,1.38,2.75,2.04,.03,.01,.06,.03,.1,.05,.4,.29,.83,.56,1.27,.84,.19,.12,.39,.27,.59,.39,.69,.44,1.36,.86,2.06,1.27,.1,.05,.2,.11,.3,.16,.58,.35,1.2,.7,1.82,1.02,.21,.13,.43,.23,.64,.35,.43,.21,.85,.44,1.27,.66,.06,.03,.14,.06,.2,.09,.88,.43,1.77,.83,2.64,1.23,.21,.08,.39,.16,.6,.24,.72,.31,1.45,.61,2.17,.89,.33,.11,.63,.24,.93,.34,.66,.24,1.34,.47,2,.69,.33,.11,.62,.2,.91,.29,.94,.3,1.9,.68,2.9,.84,51.22,8.49,63.07-30.96,63.07-30.96-10.67,15.37-31.32,22.69-53.36,16.97-.99-.25-1.96-.53-2.9-.84-.3-.08-.57-.18-.87-.28-.68-.22-1.37-.45-2.04-.7-.3-.11-.62-.23-.92-.34-.73-.29-1.46-.57-2.17-.88-.21-.08-.42-.16-.58-.25-.91-.39-1.81-.81-2.69-1.24-.45-.23-.89-.46-1.34-.69-.27-.14-.53-.26-.76-.39-.6-.31-1.15-.64-1.71-.97-.14-.07-.27-.14-.4-.22-.68-.42-1.39-.83-2.05-1.26-.23-.13-.42-.28-.63-.41-.45-.29-.89-.57-1.35-.88-.93-.65-1.84-1.33-2.75-2.02-.21-.17-.41-.33-.62-.5-9.67-7.61-17.31-18.02-20.93-29.81-3.82-12.24-2.98-25.99,3.61-37.13"/><path class="cls-1" d="M106.77,27.38c-5.87,8.61-6.43,19.31-2.38,28.81,4.29,10.1,13.07,18.02,23.3,21.77,.42,.16,.83,.3,1.26,.45,.19,.06,.37,.12,.57,.18,.6,.19,1.19,.41,1.81,.53,28.3,5.46,35.96-14.52,38.02-17.46-6.74,9.68-18.03,12-31.9,8.63-1.09-.26-2.28-.66-3.34-1.04-1.35-.48-2.69-1.03-3.99-1.65-2.44-1.18-4.8-2.61-6.98-4.27-12.41-9.41-20.1-27.36-12.01-41.98"/></svg>
